contents/images/github.svg

<svg height="20" viewBox="0 0 20 20" width="20" xmlns="http://www.w3.org/2000/svg" xmlns:xlink="http://www.w3.org/1999/xlink"><mask id="a" fill="#fff"><path d="m0 0h19.7448485v19.2573333h-19.7448485z" fill="#fff" fill-rule="evenodd"/></mask><path d="m9.87187879 0c-5.45151515 0-9.87212121 4.42-9.87212121 9.87333333 0 4.36121217 2.82848484 8.06121217 6.75212121 9.36727277.49393939.090303.67393939-.2145455.67393939-.4763637 0-.2339394-.00848485-.8551515-.01333333-1.6787879-2.74606061.5963637-3.32545455-1.3236363-3.32545455-1.3236363-.44909091-1.1406061-1.09636363-1.4436364-1.09636363-1.4436364-.89636364-.6127273.06787878-.600606.06787878-.600606.9909091.070303 1.51212122 1.0175757 1.51212122 1.0175757.88060606 1.5084849 2.31030303 1.0727273 2.87333333.8206061.08969697-.6381818.34424242-1.0733334.62666667-1.32-2.19212122-.2490909-4.4969697-1.0963637-4.4969697-4.87939396 0-1.07757576.38484848-1.95878788 1.01636364-2.64909091-.10181819-.24969697-.44060606-1.25333334.09636363-2.61272728 0 0 .82909091-.26545454 2.71515152 1.01212122.78727272-.21939394 1.63212121-.32848485 2.47151515-.33272728.83818179.00424243 1.68303029.11333334 2.47151519.33272728 1.8848484-1.27757576 2.7121212-1.01212122 2.7121212-1.01212122.5387879 1.35939394.2 2.36303031.0981818 2.61272728.6327273.69030303 1.0151515 1.57151515 1.0151515 2.64909091 0 3.79272726-2.3084848 4.62727276-4.5078788 4.87151516.3545455.3048485.670303.9072727.670303 1.8284848 0 1.319394-.0121212 2.3842425-.0121212 2.7078788 0 .2642424.1775758.5715152.6787879.4751515 3.919394-1.3084848 6.7460606-5.0060606 6.7460606-9.36606057 0-5.45333333-4.420606-9.87333333-9.87333331-9.87333333" fill="#396cb8" fill-rule="evenodd" mask="url(#a)"/></svg>

<?xml version="1.0" encoding="UTF-8"?>
<svg width="20px" height="20px" viewBox="0 0 20 20" version="1.1" xmlns="http://www.w3.org/2000/svg" xmlns:xlink="http://www.w3.org/1999/xlink">
    <!-- Generator: Sketch 48.2 (47327) - http://www.bohemiancoding.com/sketch -->
    <title>social/github</title>
    <desc>Created with Sketch.</desc>
    <defs>
        <polygon id="path-1" points="0 -3.55271368e-15 19.7448485 -3.55271368e-15 19.7448485 19.2573333 0 19.2573333"></polygon>
    </defs>
    <g id="Symbols" stroke="none" stroke-width="1" fill="none" fill-rule="evenodd">
        <g id="social/github">
            <g id="Page-1">
                <mask id="mask-2" fill="white">
                    <use xlink:href="#path-1"></use>
                </mask>
                <g id="Clip-2"></g>
                <path d="M9.87187879,-3.55271368e-15 C4.42036364,-3.55271368e-15 -0.000242424242,4.42 -0.000242424242,9.87333333 C-0.000242424242,14.2345455 2.82824242,17.9345455 6.75187879,19.2406061 C7.24581818,19.3309091 7.42581818,19.0260606 7.42581818,18.7642424 C7.42581818,18.530303 7.41733333,17.9090909 7.41248485,17.0854545 C4.66642424,17.6818182 4.0870303,15.7618182 4.0870303,15.7618182 C3.63793939,14.6212121 2.99066667,14.3181818 2.99066667,14.3181818 C2.09430303,13.7054545 3.05854545,13.7175758 3.05854545,13.7175758 C4.04945455,13.7878788 4.57066667,14.7351515 4.57066667,14.7351515 C5.45127273,16.2436364 6.8809697,15.8078788 7.444,15.5557576 C7.53369697,14.9175758 7.78824242,14.4824242 8.07066667,14.2357576 C5.87854545,13.9866667 3.57369697,13.1393939 3.57369697,9.35636364 C3.57369697,8.27878788 3.95854545,7.39757576 4.59006061,6.70727273 C4.48824242,6.45757576 4.14945455,5.45393939 4.68642424,4.09454545 C4.68642424,4.09454545 5.51551515,3.82909091 7.40157576,5.10666667 C8.18884848,4.88727273 9.03369697,4.77818182 9.87309091,4.77393939 C10.7112727,4.77818182 11.5561212,4.88727273 12.3446061,5.10666667 C14.2294545,3.82909091 15.0567273,4.09454545 15.0567273,4.09454545 C15.5955152,5.45393939 15.2567273,6.45757576 15.1549091,6.70727273 C15.7876364,7.39757576 16.1700606,8.27878788 16.1700606,9.35636364 C16.1700606,13.1490909 13.8615758,13.9836364 11.6621818,14.2278788 C12.0167273,14.5327273 12.3324848,15.1351515 12.3324848,16.0563636 C12.3324848,17.3757576 12.3203636,18.4406061 12.3203636,18.7642424 C12.3203636,19.0284848 12.4979394,19.3357576 12.9991515,19.2393939 C16.9185455,17.9309091 19.7452121,14.2333333 19.7452121,9.87333333 C19.7452121,4.42 15.3246061,-3.55271368e-15 9.87187879,-3.55271368e-15" id="Fill-1" fill="#396CB8" mask="url(#mask-2)"></path>
            </g>
        </g>
    </g>
</svg>
